findly-builder/apps/searchassist/src/assets/icons/overview/actions.svg

<svg width="16" height="16" viewBox="0 0 16 16" fill="none" xmlns="http://www.w3.org/2000/svg">
<path d="M7.7998 5.3998V1.7998V5.3998Z" fill="#93D3A2"/>
<path d="M7.7998 5.3998V1.7998" stroke="#28A745" stroke-miterlimit="10"/>
<path d="M7.8001 0.600098C7.48184 0.600098 7.17661 0.726526 6.95157 0.95157C6.72653 1.17661 6.6001 1.48184 6.6001 1.8001C6.6001 2.11836 6.72653 2.42358 6.95157 2.64863C7.17661 2.87367 7.48184 3.0001 7.8001 3.0001C8.11836 3.0001 8.42358 2.87367 8.64863 2.64863C8.87367 2.42358 9.0001 2.11836 9.0001 1.8001C9.0001 1.48184 8.87367 1.17661 8.64863 0.95157C8.42358 0.726526 8.11836 0.600098 7.8001 0.600098Z" fill="#93D3A2"/>
<path d="M7.7999 0.799902C8.3515 0.799902 8.7999 1.2487 8.7999 1.7999C8.7999 2.3511 8.3515 2.7999 7.7999 2.7999C7.2483 2.7999 6.7999 2.3511 6.7999 1.7999C6.7999 1.2487 7.2483 0.799902 7.7999 0.799902ZM7.7999 0.399902C7.0267 0.399902 6.3999 1.0267 6.3999 1.7999C6.3999 2.5731 7.0267 3.1999 7.7999 3.1999C8.5731 3.1999 9.1999 2.5731 9.1999 1.7999C9.1999 1.0267 8.5731 0.399902 7.7999 0.399902Z" fill="#28A745"/>
<path d="M7.5998 15.4C5.8782 15.4 1.7998 14.8568 1.7998 14V10.7444C1.7998 7.6308 4.4562 5 7.5998 5H7.9998C11.1434 5 13.7998 7.6308 13.7998 10.7444V14C13.7998 14.8568 9.7214 15.4 7.9998 15.4H7.5998Z" fill="#93D3A2"/>
<path d="M8.0001 5.1998C11.0357 5.1998 13.6001 7.739 13.6001 10.7442V13.9998C13.6001 14.0042 13.5045 14.4542 11.3717 14.8514C10.0809 15.0918 8.6233 15.1998 8.0001 15.1998H7.6001C6.9769 15.1998 5.5193 15.0918 4.2285 14.8514C2.0957 14.4542 2.0001 14.0042 2.0001 13.9998V10.7442C2.0001 7.739 4.5645 5.1998 7.6001 5.1998H8.0001ZM8.0001 4.7998H7.6001C4.3385 4.7998 1.6001 7.4826 1.6001 10.7442V13.9998C1.6001 15.1858 6.4141 15.5998 7.6001 15.5998H8.0001C9.1861 15.5998 14.0001 15.1858 14.0001 13.9998V10.7442C14.0001 7.4826 11.2617 4.7998 8.0001 4.7998Z" fill="#28A745"/>
<path d="M4.9999 12.2C4.1175 12.2 3.3999 11.4824 3.3999 10.6C3.3999 9.7176 4.1175 9 4.9999 9H10.5999C11.4823 9 12.1999 9.7176 12.1999 10.6C12.1999 11.4824 11.4823 12.2 10.5999 12.2H4.9999Z" fill="white"/>
<path d="M10.6002 9.1998C11.3722 9.1998 12.0002 9.8278 12.0002 10.5998C12.0002 11.3718 11.3722 11.9998 10.6002 11.9998H5.0002C4.2282 11.9998 3.6002 11.3718 3.6002 10.5998C3.6002 9.8278 4.2282 9.1998 5.0002 9.1998H10.6002ZM10.6002 8.7998H5.0002C4.0102 8.7998 3.2002 9.6098 3.2002 10.5998C3.2002 11.5898 4.0102 12.3998 5.0002 12.3998H10.6002C11.5902 12.3998 12.4002 11.5898 12.4002 10.5998C12.4002 9.6098 11.5902 8.7998 10.6002 8.7998Z" fill="#28A745"/>
<path d="M5.0001 10.2002C4.89401 10.2002 4.79227 10.2423 4.71726 10.3174C4.64224 10.3924 4.6001 10.4941 4.6001 10.6002C4.6001 10.7063 4.64224 10.808 4.71726 10.883C4.79227 10.9581 4.89401 11.0002 5.0001 11.0002C5.10618 11.0002 5.20793 10.9581 5.28294 10.883C5.35796 10.808 5.4001 10.7063 5.4001 10.6002C5.4001 10.4941 5.35796 10.3924 5.28294 10.3174C5.20793 10.2423 5.10618 10.2002 5.0001 10.2002Z" fill="#93D3A2"/>
<path d="M4.9999 10.4C5.1103 10.4 5.1999 10.4896 5.1999 10.6C5.1999 10.7104 5.1103 10.8 4.9999 10.8C4.8895 10.8 4.7999 10.7104 4.7999 10.6C4.7999 10.4896 4.8895 10.4 4.9999 10.4ZM4.9999 10C4.6687 10 4.3999 10.2688 4.3999 10.6C4.3999 10.9312 4.6687 11.2 4.9999 11.2C5.3311 11.2 5.5999 10.9312 5.5999 10.6C5.5999 10.2688 5.3311 10 4.9999 10Z" fill="#28A745"/>
<path d="M10.6002 10.2002C10.4941 10.2002 10.3924 10.2423 10.3174 10.3174C10.2423 10.3924 10.2002 10.4941 10.2002 10.6002C10.2002 10.7063 10.2423 10.808 10.3174 10.883C10.3924 10.9581 10.4941 11.0002 10.6002 11.0002C10.7063 11.0002 10.808 10.9581 10.883 10.883C10.9581 10.808 11.0002 10.7063 11.0002 10.6002C11.0002 10.4941 10.9581 10.3924 10.883 10.3174C10.808 10.2423 10.7063 10.2002 10.6002 10.2002Z" fill="#93D3A2"/>
<path d="M10.6 10.4C10.7104 10.4 10.8 10.4896 10.8 10.6C10.8 10.7104 10.7104 10.8 10.6 10.8C10.4896 10.8 10.4 10.7104 10.4 10.6C10.4 10.4896 10.4896 10.4 10.6 10.4ZM10.6 10C10.2688 10 10 10.2688 10 10.6C10 10.9312 10.2688 11.2 10.6 11.2C10.9312 11.2 11.2 10.9312 11.2 10.6C11.2 10.2688 10.9312 10 10.6 10Z" fill="#28A745"/>
<path d="M14.2003 13C13.9795 13 13.8003 12.8204 13.8003 12.6V7.4C13.8003 7.1796 13.9795 7 14.2003 7C14.4211 7 14.6003 7.1796 14.6003 7.4V12.6C14.6003 12.8204 14.4211 13 14.2003 13Z" fill="#EAF6EC"/>
<path d="M14.2001 7.1998C14.3085 7.1998 14.4001 7.2914 14.4001 7.3998V12.5998C14.4001 12.7082 14.3085 12.7998 14.2001 12.7998C14.0917 12.7998 14.0001 12.7082 14.0001 12.5998V7.3998C14.0001 7.2914 14.0917 7.1998 14.2001 7.1998ZM14.2001 6.7998C13.8701 6.7998 13.6001 7.0698 13.6001 7.3998V12.5998C13.6001 12.9298 13.8701 13.1998 14.2001 13.1998C14.5301 13.1998 14.8001 12.9298 14.8001 12.5998V7.3998C14.8001 7.0698 14.5301 6.7998 14.2001 6.7998Z" fill="#28A745"/>
<path d="M1.4 13C1.1792 13 1 12.8204 1 12.6V7.4C1 7.1796 1.1792 7 1.4 7C1.6208 7 1.8 7.1796 1.8 7.4V12.6C1.8 12.8204 1.6208 13 1.4 13Z" fill="#EAF6EC"/>
<path d="M1.3998 7.1998C1.5082 7.1998 1.5998 7.2914 1.5998 7.3998V12.5998C1.5998 12.7082 1.5082 12.7998 1.3998 12.7998C1.2914 12.7998 1.1998 12.7082 1.1998 12.5998V7.3998C1.1998 7.2914 1.2914 7.1998 1.3998 7.1998ZM1.3998 6.7998C1.0698 6.7998 0.799805 7.0698 0.799805 7.3998V12.5998C0.799805 12.9298 1.0698 13.1998 1.3998 13.1998C1.7298 13.1998 1.9998 12.9298 1.9998 12.5998V7.3998C1.9998 7.0698 1.7298 6.7998 1.3998 6.7998Z" fill="#28A745"/>
</svg>

<svg width="16" height="16" fill="none" xmlns="http://www.w3.org/2000/svg"><path d="M7.8 5.4V1.8v3.6Z" fill="#93D3A2"/><path d="M7.8 5.4V1.8" stroke="#28A745" stroke-miterlimit="10"/><path d="M7.8.6a1.2 1.2 0 1 0 0 2.4 1.2 1.2 0 0 0 0-2.4Z" fill="#93D3A2"/><path d="M7.8.8a1.001 1.001 0 0 1 0 2 1.001 1.001 0 0 1 0-2Zm0-.4a1.4 1.4 0 1 0 0 2.8 1.4 1.4 0 0 0 0-2.8Z" fill="#28A745"/><path d="M7.6 15.4c-1.722 0-5.8-.543-5.8-1.4v-3.256C1.8 7.631 4.456 5 7.6 5H8c3.143 0 5.8 2.63 5.8 5.744V14c0 .857-4.079 1.4-5.8 1.4h-.4Z" fill="#93D3A2"/><path d="M8 5.2c3.036 0 5.6 2.539 5.6 5.544V14c0 .004-.095.454-2.228.851-1.291.24-2.749.349-3.372.349h-.4c-.623 0-2.08-.108-3.371-.349C2.096 14.454 2 14.004 2 14v-3.256C2 7.74 4.564 5.2 7.6 5.2H8Zm0-.4h-.4c-3.261 0-6 2.683-6 5.944V14c0 1.186 4.814 1.6 6 1.6H8c1.186 0 6-.414 6-1.6v-3.256C14 7.483 11.262 4.8 8 4.8Z" fill="#28A745"/><path d="M5 12.2c-.883 0-1.6-.718-1.6-1.6C3.4 9.718 4.117 9 5 9h5.6c.882 0 1.6.718 1.6 1.6 0 .882-.718 1.6-1.6 1.6H5Z" fill="#fff"/><path d="M10.6 9.2c.772 0 1.4.628 1.4 1.4 0 .772-.628 1.4-1.4 1.4H5c-.772 0-1.4-.628-1.4-1.4 0-.772.628-1.4 1.4-1.4h5.6Zm0-.4H5c-.99 0-1.8.81-1.8 1.8s.81 1.8 1.8 1.8h5.6c.99 0 1.8-.81 1.8-1.8s-.81-1.8-1.8-1.8Z" fill="#28A745"/><path d="M5 10.2a.4.4 0 1 0 0 .8.4.4 0 0 0 0-.8Z" fill="#93D3A2"/><path d="M5 10.4a.2.2 0 1 1 0 .4.2.2 0 0 1 0-.4Zm0-.4a.6.6 0 1 0 0 1.2.6.6 0 0 0 0-1.2Z" fill="#28A745"/><path d="M10.6 10.2a.4.4 0 1 0 0 .8.4.4 0 0 0 0-.8Z" fill="#93D3A2"/><path d="M10.6 10.4a.2.2 0 1 1 0 .4.2.2 0 0 1 0-.4Zm0-.4a.6.6 0 1 0 0 1.2.6.6 0 0 0 0-1.2Z" fill="#28A745"/><path d="M14.2 13a.4.4 0 0 1-.4-.4V7.4a.4.4 0 0 1 .8 0v5.2a.4.4 0 0 1-.4.4Z" fill="#EAF6EC"/><path d="M14.2 7.2c.109 0 .2.091.2.2v5.2c0 .108-.091.2-.2.2a.203.203 0 0 1-.2-.2V7.4c0-.109.092-.2.2-.2Zm0-.4c-.33 0-.6.27-.6.6v5.2c0 .33.27.6.6.6.33 0 .6-.27.6-.6V7.4c0-.33-.27-.6-.6-.6Z" fill="#28A745"/><path d="M1.4 13a.4.4 0 0 1-.4-.4V7.4a.4.4 0 0 1 .8 0v5.2a.4.4 0 0 1-.4.4Z" fill="#EAF6EC"/><path d="M1.4 7.2c.108 0 .2.091.2.2v5.2c0 .108-.092.2-.2.2a.203.203 0 0 1-.2-.2V7.4c0-.109.091-.2.2-.2Zm0-.4c-.33 0-.6.27-.6.6v5.2c0 .33.27.6.6.6.33 0 .6-.27.6-.6V7.4c0-.33-.27-.6-.6-.6Z" fill="#28A745"/></svg>
